src/icons/settings.svg

<?xml version="1.0" encoding="UTF-8"?>
<svg width="24px" height="24px" viewBox="0 0 24 24" version="1.1" xmlns="http://www.w3.org/2000/svg" xmlns:xlink="http://www.w3.org/1999/xlink">
    <title>Settings</title>
    <defs>
        <path d="M20.8964629,11.0886717 C20.9304942,11.3894737 20.9304942,12.6105263 20.8964629,12.9130278 L23.2091399,14.179856 C24.0652951,14.6480536 24.2551538,15.8589095 23.6327397,16.8828262 L22.2714888,19.1175987 C21.6490748,20.1415154 20.4490246,20.5901693 19.5928695,20.1202723 L17.2586991,18.8423977 C16.7455433,19.1967323 16.2037296,19.5179278 15.6162424,19.7626481 L15.6162424,22.3005532 C15.6162424,23.2386478 14.6060509,24 13.3603273,24 L10.6405122,24 C9.39389292,24 8.38370147,23.2386478 8.38370147,22.3005532 L8.38370147,19.7643475 C7.79621424,19.5179278 7.25440056,19.197582 6.74034924,18.8432474 L4.40707439,20.121122 C3.55091922,20.5910191 2.3508691,20.1406657 1.72845504,19.1175987 L0.368099705,16.8819764 C-0.255209913,15.8589095 -0.0653512362,14.6480536 0.791699489,14.1790063 L3.10437646,12.9113283 C3.06944963,12.6105263 3.06944963,11.388624 3.1034809,11.0878219 L0.790803929,9.82014396 C-0.066246796,9.35194637 -0.256105473,8.14109053 0.366308586,7.11717384 L1.72755948,4.8824013 C2.34997354,3.85848461 3.55002366,3.40898093 4.40617883,3.87887797 L6.73766256,5.15675262 C7.25260944,4.80156824 7.79531868,4.47952307 8.38370147,4.23310328 L8.38370147,1.6994468 C8.38370147,0.761352164 9.39389292,0 10.6405122,0 L13.3603273,0 C14.6060509,0 15.6162424,0.761352164 15.6162424,1.6994468 L15.6162424,4.23310328 C16.2046252,4.47952307 16.7473344,4.80156824 17.2622813,5.15590289 L19.593765,3.87887797 C20.4508157,3.40898093 21.6499703,3.85933433 22.2732799,4.8824013 L23.6336353,7.11717384 C24.2560493,8.14278998 24.0661906,9.35194637 23.2100355,9.82099369 L20.8964629,11.0886717 Z M12.000449,15.6 C10.0120743,15.6 8.4,13.9881 8.4,12 C8.4,10.0119 10.0120743,8.4 12.000449,8.4 C13.9879257,8.4 15.6,10.0119 15.6,12 C15.6,13.9881 13.9879257,15.6 12.000449,15.6 L12.000449,15.6 Z" id="path-1"></path>
    </defs>
    <g id="Icons---In-Use-(ME)" stroke="none" stroke-width="1" fill="none" fill-rule="evenodd">
        <g id="Icons" transform="translate(-665.000000, -865.000000)">
            <g id="Settings" transform="translate(665.000000, 865.000000)">
                <rect id="Rectangle-5" x="0" y="0" width="24" height="24"></rect>
                <mask id="mask-2" fill="white">
                    <use xlink:href="#path-1"></use>
                </mask>
                <use id="Shape" fill="#1C2530" xlink:href="#path-1"></use>
                <g id="Group" mask="url(#mask-2)" fill="#1C2530">
                    <g id="💟-Icon-Style">
                        <rect id="Rectangle-2" x="0" y="0" width="24" height="24"></rect>
                    </g>
                </g>
            </g>
        </g>
    </g>
</svg>

<?xml version="1.0" encoding="utf-8"?>
<!-- Generator: Adobe Illustrator 26.0.2, SVG Export Plug-In . SVG Version: 6.00 Build 0)  -->
<svg version="1.1" id="Layer_1" xmlns="http://www.w3.org/2000/svg" xmlns:xlink="http://www.w3.org/1999/xlink" x="0px" y="0px"
	 viewBox="0 0 24 24" style="enable-background:new 0 0 24 24;" xml:space="preserve">
<style type="text/css">
	.st0{fill:none;}
	.st1{fill-rule:evenodd;clip-rule:evenodd;fill:#000;}
</style>
<g id="Giving-C-v1.1-_New-Iteration_">
	<g id="Volunteer-Hours---01">
		<g id="Content-List-_11v-l_">
			<g id="Overrides_Elements_Icons_Actions_Add">
				<rect id="Rectangle-5" class="st0" width="24" height="24"/>
			</g>
		</g>
	</g>
</g>
<g id="Shape">
	<path id="path-1_00000030483504903286623370000007149453222389844645_" class="st1" d="M20.9,11.1c0,0.3,0,1.5,0,1.8l2.3,1.3
		c0.9,0.5,1,1.7,0.4,2.7l-1.4,2.2c-0.6,1-1.8,1.5-2.7,1l-2.3-1.3c-0.5,0.4-1.1,0.7-1.6,0.9v2.5c0,0.9-1,1.7-2.3,1.7h-2.7
		c-1.2,0-2.3-0.8-2.3-1.7v-2.5c-0.6-0.2-1.1-0.6-1.6-0.9l-2.3,1.3c-0.9,0.5-2.1,0-2.7-1l-1.4-2.2c-0.6-1-0.4-2.2,0.4-2.7l2.3-1.3
		c0-0.3,0-1.5,0-1.8L0.8,9.8c-0.9-0.5-1-1.7-0.4-2.7l1.4-2.2c0.6-1,1.8-1.5,2.7-1l2.3,1.3c0.5-0.4,1.1-0.7,1.6-0.9V1.7
		c0-0.9,1-1.7,2.3-1.7h2.7c1.2,0,2.3,0.8,2.3,1.7v2.5c0.6,0.2,1.1,0.6,1.6,0.9l2.3-1.3c0.9-0.5,2.1,0,2.7,1l1.4,2.2
		c0.6,1,0.4,2.2-0.4,2.7L20.9,11.1z M12,15.6c-2,0-3.6-1.6-3.6-3.6S10,8.4,12,8.4c2,0,3.6,1.6,3.6,3.6S14,15.6,12,15.6L12,15.6z"/>
</g>
</svg>
